X: 10779
T: Dr. Whittaker's
R: hornpipe
M: 4/4
K: Dmajor
|:F>G|A>df>d c>eg>c|d>fA>d F>Ad>F|G>Be>g F>Ad>f|(3efd (3cdB (3ABG F>G|
A>df>d c>eg>c|d>fA>d F>Ad>F|G>Be>g f>ed>c|e2 d2 d2:|
|:c>d|e>de>f g>ec>e|d>cd>e f>dA>F|G>Be>g F>Ad>f|e>cd>B (3ABA G>A|
F>Ad>A f>dA>F|G>Be>B g>ec>A|c>Ac>e g>ec>A|e2 d>e d2:|

